!!!COM:	Bach, Johann Sebastian
!!!OMV:	In allen meinen Taten
!!!OTL:	In allen meinen Taten
**kern	**fb	**kern	**kern	**kern	**kern
*part5	*part5	*part4	*part3	*part2	*part1
*staff5	*	*staff4	*staff3	*staff2	*staff1
*I"Continuo	*	*I"Voice	*I"Voice	*I"Voice	*I"Voice
*I'Cont.	*	*I'V	*I'V	*I'V	*I'V
*clefF4	*	*clefF4	*clefGv2	*clefG2	*clefG2
*Trd0c0	*	*	*	*	*
*k[b-]	*	*k[b-]	*k[b-]	*k[b-]	*k[b-]
*M4/4	*	*M4/4	*M4/4	*M4/4	*M4/4
4F	.	4F	4c	4f	4a
=2	=2	=2	=2	=2	=2
4B-	.	4B-	4d	4d	4f
8AL	7 5	8AL	8cL	4e	4g
8GJ	.	8GJ	8B-J	.	.
4.F	.	4.F	4.A	8fL	8aL
.	.	.	.	8gJ	8b-J
.	.	.	.	4a	4cc
8E	.	8E	8G	.	.
=3	=3	=3	=3	=3	=3
4D	6 5	4D	4F	4a	2b-
4E	6 5	4E	4c	4g	.
4F;	.	4F;	4c;	4f;	4a;
8FL	.	8FL	4c	4f	8aL
8GJ	.	8GJ	.	.	8b-J
=4	=4	=4	=4	=4	=4
4A	6	4A	4c	8fL	4cc
.	.	.	.	8eJ	.
8AAL	6	8AAL	4c	8fL	4cc
8BB-J	.	8BB-J	.	8gJ	.
4C	.	4C	4c	8eL	4g
.	.	.	.	8dJ	.
4AA	.	4AA	8cL	4c	8aL
.	.	.	8BnJ	.	8gJ
=5	=5	=5	=5	=5	=5
2D	7	2D	8AL	4c	2f
.	.	.	8GJ	.	.
.	nr6	.	4F	4Bn	.
4C;	.	4C;	4G;	4c;	4e;
4C	-r7	4C	4B-	4e	4c
=6	=6	=6	=6	=6	=6
4D	5	4D	4A	4d	4f
4E	6	4E	4G	4c	4g
4F	.	4F	4F	4c	8a
.	.	.	.	.	16b-LL
.	.	.	.	.	16ccJJ
4BB-	.	4BB-	4F	4d	8b-L
.	.	.	.	.	8aJ
=7	=7	=7	=7	=7	=7
!!linebreak:original
2.C;	.	2.C;	2.c;	2.e;	2.g;
4C#X	6	4C#X	4A	4e	4a
=8	=8	=8	=8	=8	=8
4D	.	4D	4A	4d	4f
4E	6	4E	4G	4c	4g
4F	.	4F	8FL	4c	8aL
.	.	.	8GJ	.	8b-J
4F#X	6 5	4F#X	4A	4d	4cc
=9	=9	=9	=9	=9	=9
4G	.	4G	8GL	4d	2b-
.	.	.	8AJ	.	.
4GG	.	4GG	8B-L	4g	.
.	.	.	8cJ	.	.
4D;	#	4D;	4d;	4f#X;	4a;
4d	n	4d	4d	4fn	8aL
.	.	.	.	.	8b-J
=10	=10	=10	=10	=10	=10
8AL	6	8AL	8cL	4f	4cc
8G	.	8G	8B-	.	.
8A	.	8A	8c	4f	4cc
8B-J	.	8B-J	8dJ	.	.
4c	.	4c	4e	8eL	4g
.	.	.	.	8dJ	.
8FL	.	8FL	4f	4c	8aL
8EJ	.	8EJ	.	.	8gJ
=11	=11	=11	=11	=11	=11
8DL	7	8DL	8FL	4c	2f
8CJ	.	8CJ	8AJ	.	.
4D	nr6	4D	8GL	4Bn	.
.	.	.	8FJ	.	.
4C;	.	4C;	4G;	4c;	4e;
4BB-	6 4 2	4BB-	4E	4G	4c
=12	=12	=12	=12	=12	=12
4AA	6	4AA	8FL	4c	4f
.	.	.	8cJ	.	.
4GG	5	4GG	8dL	4B-	4g
.	6	.	8eJ	.	.
4FF	.	4FF	8fL	8AL	4a
.	.	.	8cJ	8cJ	.
4D	6 4 3	4D	8B-L	4f	8g
.	.	.	8FJ	.	16aLL
.	.	.	.	.	16b-JJ
=13	=13	=13	=13	=13	=13
!!pagebreak:original
8CL	6 4	8CL	4.c	4f	4a
8BB-J	.	8BB-J	.	.	.
4C	5 3	4C	.	4e	4g
.	.	.	8B-	.	.
4FF;	.	4FF;	4A;	4c;	4f;
=||	=||	=||	=||	=||	=||
*-	*-	*-	*-	*-	*-
!!!system-decoration: s1,s2,s3,s4,s5
